src/images/bg/train/staticbar.svg

<svg fill="none" height="18" viewBox="0 0 117 18" width="117" xmlns="http://www.w3.org/2000/svg" xmlns:xlink="http://www.w3.org/1999/xlink"><linearGradient id="a" gradientUnits="userSpaceOnUse" x1="110.748" x2="110.881" y1="10.6447" y2="6.84701"><stop offset="0" stop-color="#201c1b"/><stop offset=".27" stop-color="#313136"/><stop offset=".47" stop-color="#57575f"/><stop offset=".56" stop-color="#57575f"/><stop offset=".93" stop-color="#81818c"/><stop offset="1" stop-color="#595961"/></linearGradient><linearGradient id="b" gradientUnits="userSpaceOnUse" x1="53.2897" x2="53.7529" y1="15.3323" y2="2.07036"><stop offset=".3" stop-color="#e3cfcc"/><stop offset="1" stop-color="#b07e6e"/></linearGradient><path d="m116.179 7.00199-10.584-.36958-.136 3.90759 10.583.3696z" fill="url(#a)"/><path clip-rule="evenodd" d="m.379356 2.9582-.253022 7.2456 7.788836 3.8942 86.86013-.7791 12.0257-2.832.133-3.80772-20.8635-3.69039-28.8191.04426.403 1.92524-45.9951.20491.0631-1.80889z" fill="url(#b)" fill-rule="evenodd"/></svg>

<svg width="117" height="18" viewBox="0 0 117 18" fill="none" xmlns="http://www.w3.org/2000/svg">
<path d="M116.179 7.00199L105.595 6.63241L105.459 10.54L116.042 10.9096L116.179 7.00199Z" fill="url(#paint0_linear)"/>
<path fill-rule="evenodd" clip-rule="evenodd" d="M0.379356 2.9582L0.126334 10.2038L7.91517 14.098L94.7753 13.3189L106.801 10.4869L106.934 6.67918L86.0705 2.98879L57.2514 3.03305L57.6544 4.95829L11.6593 5.1632L11.7224 3.35431L0.379356 2.9582Z" fill="url(#paint1_linear)"/>
<defs>
<linearGradient id="paint0_linear" x1="110.748" y1="10.6447" x2="110.881" y2="6.84701" gradientUnits="userSpaceOnUse">
<stop stop-color="#201C1B"/>
<stop offset="0.27" stop-color="#313136"/>
<stop offset="0.47" stop-color="#57575F"/>
<stop offset="0.56" stop-color="#57575F"/>
<stop offset="0.93" stop-color="#81818C"/>
<stop offset="1" stop-color="#595961"/>
</linearGradient>
<linearGradient id="paint1_linear" x1="53.2897" y1="15.3323" x2="53.7529" y2="2.07036" gradientUnits="userSpaceOnUse">
<stop offset="0.3" stop-color="#E3CFCC"/>
<stop offset="1" stop-color="#B07E6E"/>
</linearGradient>
</defs>
</svg>
